PortableApps/LibreOfficePortable/App/libreoffice/help/media/icon-themes/cmd/sc_validation.svg

<svg viewBox="0 0 16 16" xmlns="http://www.w3.org/2000/svg"><path d="m1 2v12h14v-12z" fill="#fff"/><path d="m10 3v2h-2v2h2v2h2v-2h2v-2h-2v-2z" fill="#76a797"/><path d="m8 10h6v2h-6z" fill="#e68497"/><path d="m0 1v14h16v-14zm1 1h14v12h-14zm3 1a2 2 0 0 0 -2 2 2 2 0 0 0 2 2 2 2 0 0 0 2-2 2 2 0 0 0 -2-2zm0 1a1 1 0 0 1 1 1 1 1 0 0 1 -1 1 1 1 0 0 1 -1-1 1 1 0 0 1 1-1zm-2 5v4h4v-4zm1 1h2v2h-2z" fill="#808080"/></svg>

<svg viewBox="0 0 16 16" xmlns="http://www.w3.org/2000/svg">
<path
   style="fill:#ffffff"
   d="M 1 2 L 1 14 L 15 14 L 15 2 L 1 2 z "
   />
<path
   style="fill:#76a797"
   d="M 10,3 V 5 H 8 v 2 h 2 v 2 h 2 V 7 h 2 V 5 H 12 V 3 Z"
   />
<path
   style="fill:#e68497"
   d="m 8,10 h 6 v 2 H 8 Z"
   />
<path
   style="fill:#808080"
   d="M 0 1 L 0 15 L 16 15 L 16 1 L 0 1 z M 1 2 L 15 2 L 15 14 L 1 14 L 1 2 z M 4 3 A 2 2 0 0 0 2 5 A 2 2 0 0 0 4 7 A 2 2 0 0 0 6 5 A 2 2 0 0 0 4 3 z M 4 4 A 1 1 0 0 1 5 5 A 1 1 0 0 1 4 6 A 1 1 0 0 1 3 5 A 1 1 0 0 1 4 4 z M 2 9 L 2 13 L 6 13 L 6 9 L 2 9 z M 3 10 L 5 10 L 5 12 L 3 12 L 3 10 z "
   />
</svg>
